src/assets/beer-calendar-icon.svg

<svg width="101" height="100" viewBox="0 0 101 100" fill="none" xmlns="http://www.w3.org/2000/svg">
<path d="M84.3542 90.625H16.6458C14.8508 90.6229 13.1298 89.9167 11.8605 88.6613C10.5912 87.4059 9.87715 85.7039 9.875 83.9286V35.7143C9.875 35.3591 10.0177 35.0184 10.2716 34.7673C10.5256 34.5161 10.87 34.375 11.2292 34.375C11.5883 34.375 11.9328 34.5161 12.1867 34.7673C12.4407 35.0184 12.5833 35.3591 12.5833 35.7143V83.9286C12.5833 84.9942 13.0113 86.0161 13.7732 86.7696C14.5351 87.5231 15.5684 87.9464 16.6458 87.9464H84.3542C85.4316 87.9464 86.4649 87.5231 87.2268 86.7696C87.9886 86.0161 88.4167 84.9942 88.4167 83.9286V35.7143C88.4167 35.3591 88.5593 35.0184 88.8133 34.7673C89.0672 34.5161 89.4117 34.375 89.7708 34.375C90.13 34.375 90.4744 34.5161 90.7284 34.7673C90.9823 35.0184 91.125 35.3591 91.125 35.7143V83.9286C91.1228 85.7039 90.4088 87.4059 89.1395 88.6613C87.8702 89.9167 86.1492 90.6229 84.3542 90.625Z" fill="#EFEFEF"/>
<path d="M84.3542 14.0625H74.875V21.224C74.875 21.9837 74.5897 22.7123 74.0817 23.2495C73.5738 23.7867 72.885 24.0885 72.1667 24.0885C71.4484 24.0885 70.7595 23.7867 70.2516 23.2495C69.7437 22.7123 69.4583 21.9837 69.4583 21.224V14.0625H31.5417V21.224C31.5417 21.9837 31.2563 22.7123 30.7484 23.2495C30.2405 23.7867 29.5516 24.0885 28.8333 24.0885C28.115 24.0885 27.4262 23.7867 26.9183 23.2495C26.4103 22.7123 26.125 21.9837 26.125 21.224V14.0625H16.6458C14.8508 14.0648 13.1298 14.82 11.8605 16.1626C10.5912 17.5051 9.87715 19.3253 9.875 21.224V29.8177C9.875 30.1976 10.0177 30.5619 10.2716 30.8305C10.5256 31.0991 10.87 31.25 11.2292 31.25H89.7708C90.13 31.25 90.4744 31.0991 90.7284 30.8305C90.9823 30.5619 91.125 30.1976 91.125 29.8177V21.224C91.1228 19.3253 90.4088 17.5051 89.1395 16.1626C87.8702 14.82 86.1492 14.0648 84.3542 14.0625Z" fill="#F2C247"/>
<path d="M29.4062 25C28.3702 25 27.3767 24.5885 26.6441 23.8559C25.9115 23.1233 25.5 22.1298 25.5 21.0938V13.2812C25.5 12.2452 25.9115 11.2517 26.6441 10.5191C27.3767 9.78655 28.3702 9.375 29.4062 9.375C30.4423 9.375 31.4358 9.78655 32.1684 10.5191C32.901 11.2517 33.3125 12.2452 33.3125 13.2812V21.0938C33.3125 22.1298 32.901 23.1233 32.1684 23.8559C31.4358 24.5885 30.4423 25 29.4062 25ZM29.4062 11.9792C29.0609 11.9792 28.7297 12.1164 28.4855 12.3605C28.2414 12.6047 28.1042 12.9359 28.1042 13.2812V21.0938C28.1042 21.4391 28.2414 21.7703 28.4855 22.0145C28.7297 22.2586 29.0609 22.3958 29.4062 22.3958C29.7516 22.3958 30.0828 22.2586 30.327 22.0145C30.5712 21.7703 30.7083 21.4391 30.7083 21.0938V13.2812C30.7083 12.9359 30.5712 12.6047 30.327 12.3605C30.0828 12.1164 29.7516 11.9792 29.4062 11.9792Z" fill="#EFEFEF"/>
<path d="M71.5938 25C70.5577 25 69.5642 24.5885 68.8316 23.8559C68.0991 23.1233 67.6875 22.1298 67.6875 21.0938V13.2812C67.6875 12.2452 68.0991 11.2517 68.8316 10.5191C69.5642 9.78655 70.5577 9.375 71.5938 9.375C72.6298 9.375 73.6233 9.78655 74.3559 10.5191C75.0884 11.2517 75.5 12.2452 75.5 13.2812V21.0938C75.5 22.1298 75.0884 23.1233 74.3559 23.8559C73.6233 24.5885 72.6298 25 71.5938 25ZM71.5938 11.9792C71.2484 11.9792 70.9172 12.1164 70.673 12.3605C70.4288 12.6047 70.2917 12.9359 70.2917 13.2812V21.0938C70.2917 21.4391 70.4288 21.7703 70.673 22.0145C70.9172 22.2586 71.2484 22.3958 71.5938 22.3958C71.9391 22.3958 72.2703 22.2586 72.5145 22.0145C72.7587 21.7703 72.8958 21.4391 72.8958 21.0938V13.2812C72.8958 12.9359 72.7587 12.6047 72.5145 12.3605C72.2703 12.1164 71.9391 11.9792 71.5938 11.9792Z" fill="#EFEFEF"/>
<path d="M68.4688 76.5625H62.8438C62.4708 76.5625 62.1131 76.4226 61.8494 76.1735C61.5857 75.9244 61.4375 75.5866 61.4375 75.2344C61.4375 74.8821 61.5857 74.5443 61.8494 74.2952C62.1131 74.0462 62.4708 73.9062 62.8438 73.9062H68.4688C69.5876 73.9062 70.6607 73.4865 71.4519 72.7393C72.243 71.992 72.6875 70.9786 72.6875 69.9219V56.6406C72.6875 55.5839 72.243 54.5705 71.4519 53.8232C70.6607 53.076 69.5876 52.6562 68.4688 52.6562H62.8438C62.4708 52.6562 62.1131 52.5163 61.8494 52.2673C61.5857 52.0182 61.4375 51.6804 61.4375 51.3281C61.4375 50.9759 61.5857 50.6381 61.8494 50.389C62.1131 50.1399 62.4708 50 62.8438 50H68.4688C70.3329 50.0021 72.12 50.7024 73.4381 51.9473C74.7563 53.1922 75.4978 54.8801 75.5 56.6406V69.9219C75.4978 71.6824 74.7563 73.3703 73.4381 74.6152C72.12 75.8601 70.3329 76.5604 68.4688 76.5625Z" fill="#EFEFEF"/>
<path d="M67.9479 71.875H62.7396C62.3942 71.875 62.0631 71.7241 61.8189 71.4555C61.5747 71.1869 61.4375 70.8226 61.4375 70.4427C61.4375 70.0628 61.5747 69.6985 61.8189 69.4299C62.0631 69.1613 62.3942 69.0104 62.7396 69.0104H66.6458V57.5521H62.7396C62.3942 57.5521 62.0631 57.4012 61.8189 57.1326C61.5747 56.864 61.4375 56.4997 61.4375 56.1198C61.4375 55.7399 61.5747 55.3756 61.8189 55.107C62.0631 54.8384 62.3942 54.6875 62.7396 54.6875H67.9479C68.2933 54.6875 68.6244 54.8384 68.8686 55.107C69.1128 55.3756 69.25 55.7399 69.25 56.1198V70.4427C69.25 70.8226 69.1128 71.1869 68.8686 71.4555C68.6244 71.7241 68.2933 71.875 67.9479 71.875Z" fill="#EFEFEF"/>
<path d="M63 54.6875C62.5856 54.6875 62.1882 54.5229 61.8951 54.2299C61.6021 53.9368 61.4375 53.5394 61.4375 53.125V48.4375C61.4375 48.0231 61.6021 47.6257 61.8951 47.3326C62.1882 47.0396 62.5856 46.875 63 46.875C63.4144 46.875 63.8118 47.0396 64.1049 47.3326C64.3979 47.6257 64.5625 48.0231 64.5625 48.4375V53.125C64.5625 53.5394 64.3979 53.9368 64.1049 54.2299C63.8118 54.5229 63.4144 54.6875 63 54.6875Z" fill="#EFEFEF"/>
<path d="M35.6562 54.6875C35.449 54.6875 35.2503 54.5229 35.1038 54.2299C34.9573 53.9368 34.875 53.5394 34.875 53.125V48.4375C34.875 48.0231 34.9573 47.6257 35.1038 47.3326C35.2503 47.0396 35.449 46.875 35.6562 46.875C35.8635 46.875 36.0622 47.0396 36.2087 47.3326C36.3552 47.6257 36.4375 48.0231 36.4375 48.4375V53.125C36.4375 53.5394 36.3552 53.9368 36.2087 54.2299C36.0622 54.5229 35.8635 54.6875 35.6562 54.6875Z" fill="#EFEFEF"/>
<path d="M57.8153 53.125C57.8153 53.8502 57.531 54.5457 57.0249 55.0585C56.5187 55.5713 55.8323 55.8594 55.1165 55.8594C54.4007 55.8594 53.7142 55.5713 53.2081 55.0585C52.702 54.5457 52.4176 53.8502 52.4176 53.125H34.875V81.8359C34.875 82.9237 35.3015 83.967 36.0607 84.7362C36.8199 85.5054 37.8496 85.9375 38.9233 85.9375H60.5142C61.5879 85.9375 62.6176 85.5054 63.3768 84.7362C64.136 83.967 64.5625 82.9237 64.5625 81.8359V53.125H57.8153Z" fill="#F2C247"/>
<path d="M55.1165 56.25C54.0428 56.25 53.0131 55.8659 52.2539 55.1822C51.4947 54.4984 51.0682 53.5711 51.0682 52.6042V48.9583C51.0682 48.636 50.926 48.3269 50.6729 48.099C50.4199 47.8711 50.0766 47.7431 49.7188 47.7431H38.9233C38.5654 47.7431 38.2222 47.8711 37.9691 48.099C37.716 48.3269 37.5739 48.636 37.5739 48.9583C37.5739 49.2806 37.4317 49.5898 37.1786 49.8177C36.9256 50.0456 36.5823 50.1736 36.2244 50.1736C35.8665 50.1736 35.5233 50.0456 35.2702 49.8177C35.0172 49.5898 34.875 49.2806 34.875 48.9583C34.875 47.9914 35.3015 47.0641 36.0607 46.3803C36.8199 45.6966 37.8496 45.3125 38.9233 45.3125H49.7188C50.7924 45.3125 51.8221 45.6966 52.5813 46.3803C53.3405 47.0641 53.767 47.9914 53.767 48.9583V52.6042C53.767 52.9265 53.9092 53.2356 54.1623 53.4635C54.4154 53.6914 54.7586 53.8194 55.1165 53.8194C55.4744 53.8194 55.8176 53.6914 56.0707 53.4635C56.3237 53.2356 56.4659 52.9265 56.4659 52.6042V48.9583C56.4659 47.9914 56.8924 47.0641 57.6516 46.3803C58.4108 45.6966 59.4405 45.3125 60.5142 45.3125C61.5879 45.3125 62.6176 45.6966 63.3768 46.3803C64.136 47.0641 64.5625 47.9914 64.5625 48.9583C64.5625 49.2806 64.4203 49.5898 64.1673 49.8177C63.9142 50.0456 63.571 50.1736 63.2131 50.1736C62.8552 50.1736 62.5119 50.0456 62.2589 49.8177C62.0058 49.5898 61.8636 49.2806 61.8636 48.9583C61.8636 48.636 61.7215 48.3269 61.4684 48.099C61.2153 47.8711 60.8721 47.7431 60.5142 47.7431C60.1563 47.7431 59.8131 47.8711 59.56 48.099C59.3069 48.3269 59.1648 48.636 59.1648 48.9583V52.6042C59.1648 53.5711 58.7383 54.4984 57.9791 55.1822C57.2199 55.8659 56.1902 56.25 55.1165 56.25Z" fill="#EFEFEF"/>
<path d="M37.825 42.1875C37.6336 42.188 37.4443 42.146 37.2694 42.0641C36.9319 41.9078 36.667 41.6162 36.5329 41.2533C36.3987 40.8905 36.4064 40.4861 36.554 40.1292C37.0798 38.8727 37.9914 37.8408 39.141 37.2008C40.2906 36.5608 41.6109 36.3503 42.8878 36.6032C43.3731 35.6029 44.0798 34.7416 44.9477 34.0925C45.8156 33.4433 46.819 33.0258 47.8724 32.8753C48.9258 32.7248 49.9979 32.8458 50.9975 33.2281C51.9972 33.6104 52.8946 34.2426 53.6134 35.0709C54.4826 34.7098 55.422 34.5789 56.35 34.6896C57.2779 34.8003 58.1662 35.1492 58.9375 35.7059C59.7089 36.2627 60.3399 37.0104 60.7756 37.884C61.2113 38.7576 61.4385 39.7306 61.4375 40.7183C61.4375 41.108 61.2912 41.4817 61.0307 41.7572C60.7702 42.0327 60.4169 42.1875 60.0485 42.1875C59.6801 42.1875 59.3269 42.0327 59.0664 41.7572C58.8059 41.4817 58.6596 41.108 58.6596 40.7183C58.6588 39.8894 58.3472 39.0947 57.793 38.5085C57.2389 37.9224 56.4875 37.5928 55.7038 37.592C55.0985 37.592 54.5083 37.7912 54.0148 38.162C53.8591 38.2779 53.6824 38.3588 53.4959 38.3994C53.3093 38.4401 53.1169 38.4398 52.9305 38.3984C52.7441 38.3571 52.5677 38.2756 52.4123 38.1592C52.2569 38.0427 52.1258 37.8936 52.0272 37.7213C51.64 37.0352 51.0691 36.4861 50.3867 36.1435C49.7043 35.8008 48.9411 35.6801 48.1937 35.7965C47.4464 35.9129 46.7485 36.2612 46.1885 36.7974C45.6284 37.3336 45.2314 38.0334 45.0476 38.8084C44.997 39.0206 44.9022 39.218 44.7702 39.3865C44.6382 39.5549 44.4723 39.69 44.2846 39.7819C44.0969 39.8739 43.8922 39.9203 43.6854 39.9179C43.4785 39.9154 43.2749 39.8641 43.0892 39.7678C42.7333 39.5809 42.3452 39.4724 41.9485 39.449C41.5518 39.4255 41.1547 39.4876 40.7814 39.6315C40.408 39.7753 40.0662 39.998 39.7767 40.2858C39.4872 40.5737 39.2561 40.9208 39.0973 41.306C38.9892 41.5679 38.8113 41.7908 38.5853 41.9473C38.3593 42.1039 38.0951 42.1873 37.825 42.1875Z" fill="#EFEFEF"/>
<path d="M55.1165 56.25C54.0428 56.25 53.0131 55.8659 52.2539 55.1822C51.4947 54.4984 51.0682 53.5711 51.0682 52.6042V48.9583C51.0682 48.636 50.926 48.3269 50.6729 48.099C50.4199 47.8711 50.0766 47.7431 49.7188 47.7431H38.9233C38.5654 47.7431 38.2222 47.8711 37.9691 48.099C37.716 48.3269 37.5739 48.636 37.5739 48.9583C37.5739 49.2806 37.4317 49.5898 37.1786 49.8177C36.9256 50.0456 36.5823 50.1736 36.2244 50.1736C35.8665 50.1736 35.5233 50.0456 35.2702 49.8177C35.0172 49.5898 34.875 49.2806 34.875 48.9583C34.875 47.9914 35.3015 47.0641 36.0607 46.3803C36.8199 45.6966 37.8496 45.3125 38.9233 45.3125H49.7188C50.7924 45.3125 51.8221 45.6966 52.5813 46.3803C53.3405 47.0641 53.767 47.9914 53.767 48.9583V52.6042C53.767 52.9265 53.9092 53.2356 54.1623 53.4635C54.4154 53.6914 54.7586 53.8194 55.1165 53.8194C55.4744 53.8194 55.8176 53.6914 56.0707 53.4635C56.3237 53.2356 56.4659 52.9265 56.4659 52.6042V48.9583C56.4659 47.9914 56.8924 47.0641 57.6516 46.3803C58.4108 45.6966 59.4405 45.3125 60.5142 45.3125C61.5879 45.3125 62.6176 45.6966 63.3768 46.3803C64.136 47.0641 64.5625 47.9914 64.5625 48.9583C64.5625 49.2806 64.4203 49.5898 64.1673 49.8177C63.9142 50.0456 63.571 50.1736 63.2131 50.1736C62.8552 50.1736 62.5119 50.0456 62.2589 49.8177C62.0058 49.5898 61.8636 49.2806 61.8636 48.9583C61.8636 48.636 61.7215 48.3269 61.4684 48.099C61.2153 47.8711 60.8721 47.7431 60.5142 47.7431C60.1563 47.7431 59.8131 47.8711 59.56 48.099C59.3069 48.3269 59.1648 48.636 59.1648 48.9583V52.6042C59.1648 53.5711 58.7383 54.4984 57.9791 55.1822C57.2199 55.8659 56.1902 56.25 55.1165 56.25Z" fill="#EFEFEF"/>
<path d="M56.75 78.125C56.3356 78.125 55.9382 77.9839 55.6451 77.7327C55.3521 77.4816 55.1875 77.1409 55.1875 76.7857V60.7143C55.1875 60.3591 55.3521 60.0184 55.6451 59.7673C55.9382 59.5161 56.3356 59.375 56.75 59.375C57.1644 59.375 57.5618 59.5161 57.8549 59.7673C58.1479 60.0184 58.3125 60.3591 58.3125 60.7143V76.7857C58.3125 77.1409 58.1479 77.4816 57.8549 77.7327C57.5618 77.9839 57.1644 78.125 56.75 78.125Z" fill="#141414"/>
<path d="M48.9375 78.125C48.5231 78.125 48.1257 77.9839 47.8326 77.7327C47.5396 77.4816 47.375 77.1409 47.375 76.7857V60.7143C47.375 60.3591 47.5396 60.0184 47.8326 59.7673C48.1257 59.5161 48.5231 59.375 48.9375 59.375C49.3519 59.375 49.7493 59.5161 50.0424 59.7673C50.3354 60.0184 50.5 60.3591 50.5 60.7143V76.7857C50.5 77.1409 50.3354 77.4816 50.0424 77.7327C49.7493 77.9839 49.3519 78.125 48.9375 78.125Z" fill="#141414"/>
<path d="M41.125 78.125C40.7106 78.125 40.3132 77.9839 40.0201 77.7327C39.7271 77.4816 39.5625 77.1409 39.5625 76.7857V60.7143C39.5625 60.3591 39.7271 60.0184 40.0201 59.7673C40.3132 59.5161 40.7106 59.375 41.125 59.375C41.5394 59.375 41.9368 59.5161 42.2299 59.7673C42.5229 60.0184 42.6875 60.3591 42.6875 60.7143V76.7857C42.6875 77.1409 42.5229 77.4816 42.2299 77.7327C41.9368 77.9839 41.5394 78.125 41.125 78.125Z" fill="#141414"/>
</svg>

<svg xmlns="http://www.w3.org/2000/svg" width="101" height="100" fill="none" viewBox="0 0 101 100">
    <path fill="#EFEFEF" d="M84.354 90.625H16.646a6.817 6.817 0 0 1-4.786-1.964 6.668 6.668 0 0 1-1.985-4.732V35.714c0-.355.143-.696.397-.947a1.362 1.362 0 0 1 1.915 0c.254.251.396.592.396.947V83.93c0 1.065.428 2.087 1.19 2.84a4.086 4.086 0 0 0 2.873 1.177h67.708c1.078 0 2.11-.423 2.873-1.176a3.996 3.996 0 0 0 1.19-2.841V35.714c0-.355.142-.696.396-.947a1.362 1.362 0 0 1 1.915 0c.254.251.397.592.397.947V83.93a6.668 6.668 0 0 1-1.986 4.732 6.817 6.817 0 0 1-4.785 1.964Z"/>
    <path fill="#F2C247" d="M84.354 14.063h-9.479v7.161a2.95 2.95 0 0 1-.793 2.026 2.635 2.635 0 0 1-1.915.838 2.636 2.636 0 0 1-1.915-.838 2.95 2.95 0 0 1-.794-2.026v-7.162H31.542v7.162a2.95 2.95 0 0 1-.794 2.026 2.636 2.636 0 0 1-1.915.838 2.635 2.635 0 0 1-1.915-.838 2.95 2.95 0 0 1-.793-2.026v-7.162h-9.48c-1.794.003-3.515.758-4.784 2.1-1.27 1.343-1.984 3.163-1.986 5.062v8.594c0 .38.143.744.397 1.012.254.27.598.42.957.42h78.542c.359 0 .703-.15.957-.42.254-.268.397-.632.397-1.012v-8.594c-.002-1.899-.716-3.719-1.986-5.061-1.269-1.343-2.99-2.098-4.785-2.1Z"/>
    <path fill="#EFEFEF" d="M29.406 25a3.906 3.906 0 0 1-3.906-3.906V13.28a3.906 3.906 0 1 1 7.813 0v7.813A3.906 3.906 0 0 1 29.405 25Zm0-13.02a1.302 1.302 0 0 0-1.302 1.301v7.813a1.302 1.302 0 0 0 2.604 0V13.28a1.302 1.302 0 0 0-1.302-1.302ZM71.594 25a3.906 3.906 0 0 1-3.906-3.906V13.28a3.906 3.906 0 0 1 7.812 0v7.813A3.906 3.906 0 0 1 71.594 25Zm0-13.02a1.302 1.302 0 0 0-1.302 1.301v7.813a1.302 1.302 0 1 0 2.604 0V13.28a1.302 1.302 0 0 0-1.302-1.302ZM68.469 76.563h-5.625c-.373 0-.73-.14-.995-.39a1.292 1.292 0 0 1-.411-.939c0-.352.148-.69.411-.939a1.45 1.45 0 0 1 .995-.389h5.625c1.119 0 2.192-.42 2.983-1.167a3.876 3.876 0 0 0 1.236-2.817V56.64c0-1.057-.445-2.07-1.236-2.818a4.348 4.348 0 0 0-2.983-1.167h-5.625c-.373 0-.73-.14-.995-.389a1.292 1.292 0 0 1-.411-.939c0-.352.148-.69.411-.939a1.45 1.45 0 0 1 .995-.389h5.625c1.864.002 3.651.702 4.97 1.947 1.317 1.245 2.059 2.933 2.061 4.694v13.28c-.002 1.761-.744 3.45-2.062 4.694-1.318 1.245-3.105 1.945-4.97 1.948Z"/>
    <path fill="#EFEFEF" d="M67.948 71.875H62.74c-.346 0-.677-.15-.921-.42a1.508 1.508 0 0 1-.382-1.012c0-.38.138-.745.382-1.013.244-.269.575-.42.92-.42h3.907V57.552H62.74c-.346 0-.677-.15-.921-.42a1.508 1.508 0 0 1-.382-1.012c0-.38.138-.744.382-1.013.244-.269.575-.42.92-.42h5.209c.345 0 .676.151.92.42.245.269.382.633.382 1.013v14.323c0 .38-.137.744-.381 1.013-.245.268-.576.419-.921.419Z"/>
    <path fill="#EFEFEF" d="M63 54.688a1.563 1.563 0 0 1-1.563-1.563v-4.688a1.563 1.563 0 0 1 3.126 0v4.688A1.563 1.563 0 0 1 63 54.688ZM35.656 54.688c-.207 0-.406-.165-.552-.458-.147-.293-.229-.69-.229-1.105v-4.688c0-.414.082-.811.229-1.104.146-.293.345-.458.552-.458.208 0 .406.165.553.458.146.293.228.69.228 1.105v4.687c0 .414-.082.812-.228 1.105-.147.293-.346.458-.553.458Z"/>
    <path fill="#F2C247" d="M57.815 53.125c0 .725-.284 1.42-.79 1.934-.506.512-1.193.8-1.908.8a2.681 2.681 0 0 1-1.909-.8 2.753 2.753 0 0 1-.79-1.934H34.875v28.71a4.13 4.13 0 0 0 1.186 2.901 4.022 4.022 0 0 0 2.862 1.201h21.591a4.022 4.022 0 0 0 2.863-1.2 4.13 4.13 0 0 0 1.185-2.901V53.125h-6.747Z"/>
    <path fill="#EFEFEF" d="M55.117 56.25c-1.074 0-2.104-.384-2.863-1.068-.76-.684-1.186-1.61-1.186-2.578v-3.646c0-.322-.142-.631-.395-.859a1.428 1.428 0 0 0-.954-.356H38.923c-.358 0-.7.128-.954.356a1.157 1.157 0 0 0-.395.86c0 .322-.142.63-.395.859a1.429 1.429 0 0 1-.955.356c-.357 0-.7-.128-.954-.356a1.158 1.158 0 0 1-.395-.86c0-.967.426-1.894 1.186-2.578.759-.683 1.789-1.068 2.862-1.068H49.72c1.073 0 2.103.385 2.862 1.068.76.684 1.186 1.611 1.186 2.578v3.646c0 .322.142.632.395.86.253.227.597.355.955.355.357 0 .7-.128.954-.355.253-.228.395-.538.395-.86v-3.646c0-.967.426-1.894 1.186-2.578.759-.683 1.788-1.068 2.862-1.068s2.104.385 2.863 1.068c.759.684 1.185 1.611 1.185 2.578 0 .323-.142.632-.395.86a1.429 1.429 0 0 1-.954.356c-.358 0-.701-.128-.954-.356a1.157 1.157 0 0 1-.395-.86c0-.322-.142-.631-.396-.859a1.429 1.429 0 0 0-.954-.356c-.358 0-.7.128-.954.356a1.157 1.157 0 0 0-.395.86v3.645c0 .967-.427 1.894-1.186 2.578-.76.684-1.789 1.068-2.862 1.068ZM37.825 42.188a1.3 1.3 0 0 1-.556-.124 1.436 1.436 0 0 1-.736-.81 1.548 1.548 0 0 1 .021-1.125 5.976 5.976 0 0 1 2.587-2.928 5.49 5.49 0 0 1 3.747-.598 6.877 6.877 0 0 1 2.06-2.51 6.391 6.391 0 0 1 2.924-1.218 6.257 6.257 0 0 1 3.126.353 6.582 6.582 0 0 1 2.615 1.843 5.442 5.442 0 0 1 2.737-.381c.928.11 1.816.46 2.587 1.016a5.961 5.961 0 0 1 1.839 2.178c.435.874.662 1.847.661 2.834 0 .39-.146.764-.406 1.04-.26.275-.614.43-.983.43-.368 0-.721-.155-.982-.43a1.513 1.513 0 0 1-.406-1.04c-.001-.829-.313-1.623-.867-2.21a2.88 2.88 0 0 0-2.09-.916c-.605 0-1.195.2-1.688.57a1.35 1.35 0 0 1-.52.237c-.186.041-.378.04-.564 0a1.353 1.353 0 0 1-.519-.24 1.44 1.44 0 0 1-.385-.438 3.903 3.903 0 0 0-1.64-1.577 3.631 3.631 0 0 0-2.193-.347 3.731 3.731 0 0 0-2.006 1 4.086 4.086 0 0 0-1.14 2.011c-.051.213-.146.41-.278.578a1.401 1.401 0 0 1-.485.396 1.325 1.325 0 0 1-1.196-.014 2.784 2.784 0 0 0-2.308-.136 2.91 2.91 0 0 0-1.004.654c-.29.288-.52.635-.68 1.02a1.451 1.451 0 0 1-.512.641c-.226.157-.49.24-.76.24Z"/>
    <path fill="#EFEFEF" d="M55.117 56.25c-1.074 0-2.104-.384-2.863-1.068-.76-.684-1.186-1.61-1.186-2.578v-3.646c0-.322-.142-.631-.395-.859a1.428 1.428 0 0 0-.954-.356H38.923c-.358 0-.7.128-.954.356a1.157 1.157 0 0 0-.395.86c0 .322-.142.63-.395.859a1.429 1.429 0 0 1-.955.356c-.357 0-.7-.128-.954-.356a1.158 1.158 0 0 1-.395-.86c0-.967.426-1.894 1.186-2.578.759-.683 1.789-1.068 2.862-1.068H49.72c1.073 0 2.103.385 2.862 1.068.76.684 1.186 1.611 1.186 2.578v3.646c0 .322.142.632.395.86.253.227.597.355.955.355.357 0 .7-.128.954-.355.253-.228.395-.538.395-.86v-3.646c0-.967.426-1.894 1.186-2.578.759-.683 1.788-1.068 2.862-1.068s2.104.385 2.863 1.068c.759.684 1.185 1.611 1.185 2.578 0 .323-.142.632-.395.86a1.429 1.429 0 0 1-.954.356c-.358 0-.701-.128-.954-.356a1.157 1.157 0 0 1-.395-.86c0-.322-.142-.631-.396-.859a1.429 1.429 0 0 0-.954-.356c-.358 0-.7.128-.954.356a1.157 1.157 0 0 0-.395.86v3.645c0 .967-.427 1.894-1.186 2.578-.76.684-1.789 1.068-2.862 1.068Z"/>
    <path fill="#141414" d="M56.75 78.125c-.414 0-.812-.141-1.105-.392a1.25 1.25 0 0 1-.458-.947V60.714c0-.355.165-.696.458-.947.293-.25.69-.392 1.105-.392.414 0 .812.141 1.105.392.293.251.458.592.458.947v16.072c0 .355-.165.696-.458.947-.293.25-.69.392-1.105.392ZM48.938 78.125c-.415 0-.812-.141-1.105-.392a1.25 1.25 0 0 1-.458-.947V60.714c0-.355.165-.696.458-.947.293-.25.69-.392 1.105-.392.414 0 .811.141 1.104.392.293.251.458.592.458.947v16.072c0 .355-.165.696-.458.947-.293.25-.69.392-1.105.392ZM41.125 78.125c-.414 0-.812-.141-1.105-.392a1.25 1.25 0 0 1-.458-.947V60.714c0-.355.165-.696.458-.947.293-.25.69-.392 1.105-.392.414 0 .812.141 1.105.392.293.251.458.592.458.947v16.072c0 .355-.165.696-.458.947-.293.25-.69.392-1.105.392Z"/>
</svg>
